; generated by PrusaSlicer 2.9.2 on 2025-04-11 at 22:24:25 UTC

; 

; external perimeters extrusion width = 0.45mm
; perimeters extrusion width = 0.45mm
; infill extrusion width = 0.45mm
; solid infill extrusion width = 0.45mm
; top infill extrusion width = 0.40mm
; first layer extrusion width = 0.42mm

M190 S40 ; set bed temperature and wait for it to be reached
;TYPE:Custom
G21 ;metric values
G90 ;absolute positioning
M82 ;set extruder to absolute mode
M107 ;start with the fan off
M117 Homing X/Y ...
G28 X0 Y0 ;move X/Y to min endstops
M117 Homing Z ...
G28 Z0 ;move Z to min endstops
G1 Z15.0 F240 ;move the platform down 15mm
M117 Heating ...
M104 S215
 ; set extruder temp
M109 S215
 ; wait for extruder temp
M117 Start cleaning ...
G92 E0 ;zero the extruded length
G1 F200 E10 ;extrude 10mm of feed stock
G92 E0 ;zero the extruded length again
M117 Intro line ...
G1 Z2.0 F3000 ; Move Z Axis up little to prevent scratching of Heat Bed
G1 X0.1 Y20 Z0.2 F5000.0 ; Move to start position
G1 X0.1 Y200.0 Z0.2 F1500.0 E15 ; Draw the first line
G1 X0.4 Y200.0 Z0.2 F5000.0 ; Move to side a little
G1 X0.4 Y20 Z0.2 F1500.0 E30 ; Draw the second line
G92 E0 ; Reset Extruder
G1 E-1 F500 ; Retract filiment by 1 mm
G1 Z2.0 F3000 ; Move Z Axis up little to prevent scratching of Heat Bed
G1 X5 Y20 Z0.3 F240 ; Move over to prevent blob squish
G92 E0 ; Reset Extruder
M117 Printing...
G21 ; set units to millimeters
G90 ; use absolute coordinates
M83 ; use relative distances for extrusion
; Filament gcode
M107
;LAYER_CHANGE
;Z:0.2
;HEIGHT:0.2
G1 E-7 F1800
G1 Z.4 F7200
G1 X82.757 Y101.909
G1 Z.2
G1 E7 F1800
;TYPE:Skirt/Brim
;WIDTH:0.42
G1 F1200
G1 X83.451 Y101.346 E.02802
G1 X84.406 Y100.895 E.03311
G1 X85.517 Y100.682 E.03547
G1 X110.283 Y99.192 E.77792
G1 X112.61 Y99.377 E.07319
G1 X114.864 Y99.858 E.07226
G1 X116.972 Y100.598 E.07005
G1 X118.988 Y101.608 E.0707
G1 X120.947 Y102.933 E.07415
G1 X122.697 Y104.491 E.07346
G1 X124.273 Y106.329 E.07591
G1 X125.519 Y108.261 E.07208
G1 X125.858 Y109.26 E.03308
G1 X125.925 Y110.228 E.03042
G1 X125.706 Y111.298 E.03424
G1 X125.243 Y112.226 E.03252
G1 X124.16 Y113.822 E.06047
G1 X122.764 Y115.44 E.067
G1 X121.274 Y116.807 E.0634
G1 X119.665 Y117.976 E.06236
G1 X117.386 Y119.22 E.08141
G1 X114.984 Y120.109 E.08031
G1 X113.611 Y120.447 E.04433
G1 X112.278 Y120.668 E.04237
G1 X109.708 Y120.806 E.0807
G1 X85.148 Y119.279 E.77155
G1 X84.167 Y119.019 E.03182
G1 X83.39 Y118.615 E.02746
G1 X82.743 Y118.09 E.02612
G1 X82.173 Y117.39 E.0283
G1 X81.672 Y116.319 E.03707
G1 X81.473 Y115.187 E.03604
G1 X81.484 Y104.649 E.33041
G1 X81.675 Y103.675 E.03112
G1 X82.1 Y102.726 E.0326
G1 X82.686 Y101.967 E.03007
G1 X82.711 Y101.947 E.001
G1 X82.955 Y102.231 F7200
G1 F1200
G1 X83.658 Y101.661 E.02838
G1 X84.522 Y101.254 E.02995
G1 X85.54 Y101.058 E.0325
G1 X110.282 Y99.569 E.77717
G1 X112.555 Y99.75 E.07149
G1 X114.764 Y100.222 E.07083
G1 X116.825 Y100.945 E.06848
G1 X118.794 Y101.931 E.06904
G1 X120.714 Y103.23 E.07268
G1 X122.431 Y104.757 E.07205
G1 X123.97 Y106.555 E.07421
G1 X125.182 Y108.43 E.07
G1 X125.5 Y109.392 E.03177
G1 X125.538 Y110.335 E.02959
G1 X125.288 Y111.335 E.03232
G1 X124.754 Y112.302 E.03464
G1 X123.639 Y113.878 E.06053
G1 X122.365 Y115.308 E.06005
G1 X120.979 Y116.561 E.05858
G1 X119.322 Y117.748 E.06391
G1 X117.233 Y118.876 E.07444
G1 X114.834 Y119.759 E.08015
G1 X113.533 Y120.078 E.042
G1 X112.227 Y120.295 E.04151
G1 X109.713 Y120.429 E.07894
G1 X85.207 Y118.907 E.76985
G1 X84.3 Y118.666 E.02943
G1 X83.591 Y118.296 E.02508
G1 X82.928 Y117.741 E.02711
G1 X82.427 Y117.086 E.02586
G1 X82.033 Y116.211 E.03009
G1 X81.849 Y115.172 E.03308
G1 X81.86 Y104.678 E.32903
G1 X82.035 Y103.784 E.02856
G1 X82.42 Y102.925 E.02951
G1 X82.919 Y102.278 E.02562
G1 E-4.9 F1800
;WIPE_START
G1 F5760
G1 X82.955 Y102.231 E-.01758
G1 X83.658 Y101.661 E-.26869
G1 X84.522 Y101.254 E-.28353
G1 X85.54 Y101.058 E-.30777
G1 X89.65 Y100.811 E-1.22243
;WIPE_END
G1 Z.4 F7200
G1 X108.485 Y108.726
G1 Z.2
G1 E7 F1800
;TYPE:External perimeter
;WIDTH:0.419999
G1 F1200
G1 X108.598 Y108.512 E.00759
G1 X108.836 Y108.341 E.00919
G1 X109.255 Y108.286 E.01325
G1 X109.606 Y108.483 E.01262
G1 X109.909 Y108.882 E.01571
G1 X110.201 Y109.406 E.01881
G1 X110.409 Y108.942 E.01594
G1 X110.733 Y108.507 E.01701
G1 X111.111 Y108.285 E.01374
G1 X111.402 Y108.301 E.00914
G1 X111.656 Y108.474 E.00964
;WIDTH:0.468298
G1 X111.743 Y108.617 E.00592
;WIDTH:0.516596
G1 X111.831 Y108.759 E.00658
;WIDTH:0.564894
G1 X111.919 Y108.901 E.00725
G1 X111.861 Y109.031 E.00618
;WIDTH:0.516596
G1 X111.802 Y109.16 E.00559
;WIDTH:0.468298
G1 X111.743 Y109.29 E.00505
;WIDTH:0.419999
G1 X111.095 Y110.388 E.03998
G1 X110.999 Y110.698 E.01018
G1 X111.107 Y111.036 E.01113
G1 X111.727 Y112.068 E.03775
G1 X111.878 Y112.452 E.01294
G1 X111.903 Y112.657 E.00648
G1 X111.862 Y112.893 E.00751
G1 X111.746 Y113.089 E.00714
G1 X111.512 Y113.248 E.00887
G1 X111.079 Y113.293 E.01365
G1 X110.735 Y113.096 E.01243
G1 X110.461 Y112.672 E.01583
G1 X110.104 Y112.03 E.02303
G1 X109.828 Y112.593 E.01966
G1 X109.463 Y113.076 E.01898
G1 X109.342 Y113.197 E.00537
G1 X109.078 Y113.289 E.00877
G1 X108.82 Y113.249 E.00819
G1 X108.581 Y113.103 E.00878
;WIDTH:0.422859
G1 X108.435 Y112.889 E.00818
;WIDTH:0.452539
G1 X108.39 Y112.517 E.01276
G1 X108.433 Y112.412 E.00386
;WIDTH:0.443063
G1 X108.723 Y111.844 E.02122
;WIDTH:0.419999
G1 X109.019 Y111.333 E.01852
G1 X109.334 Y110.887 E.01712
G1 X109.373 Y110.735 E.00492
G1 X108.657 Y109.506 E.0446
G1 X108.472 Y109.034 E.0159
G1 X108.477 Y108.784 E.00784
G1 E-4.9 F1800
;WIPE_START
G1 F5760
G1 X108.485 Y108.726 E-.01738
G1 X108.598 Y108.512 E-.07184
G1 X108.836 Y108.341 E-.087
G1 X109.255 Y108.286 E-.12546
G1 X109.606 Y108.483 E-.11949
G1 X109.909 Y108.882 E-.14874
G1 X110.201 Y109.406 E-.17809
G1 X110.409 Y108.942 E-.15096
G1 X110.733 Y108.507 E-.16103
G1 X111.111 Y108.285 E-.13014
G1 X111.402 Y108.301 E-.08652
G1 X111.656 Y108.474 E-.09124
G1 X111.743 Y108.617 E-.04969
G1 X111.831 Y108.759 E-.0496
G1 X111.919 Y108.901 E-.0496
G1 X111.861 Y109.031 E-.04226
G1 X111.802 Y109.16 E-.04211
G1 X111.743 Y109.29 E-.04238
G1 X111.095 Y110.388 E-.3785
G1 X111.017 Y110.639 E-.07797
;WIPE_END
G1 Z.4 F7200
G1 X111.327 Y110.578
G1 X111.63 Y108.997
G1 X111.636 Y108.951
G1 X111.638 Y108.931
G1 X111.634 Y108.887
G1 X111.628 Y108.841
G1 X111.614 Y108.795
G1 X111.563 Y108.635
G1 X111.54 Y108.578
G1 X111.531 Y108.557
G1 X111.51 Y108.521
G1 X111.168 Y107.915
G1 X109.036 Y107.915
G1 X108.921 Y107.937
G1 X108.833 Y107.958
G1 X108.715 Y107.997
G1 X108.605 Y108.052
G1 X108.524 Y108.104
G1 X108.438 Y108.165
G1 X108.343 Y108.255
G1 X108.282 Y108.334
G1 X108.231 Y108.407
G1 X108.172 Y108.518
G1 X108.134 Y108.632
G1 X108.112 Y108.732
G1 X108.102 Y108.837
G1 X108.102 Y108.932
G1 X108.11 Y109.036
G1 X108.13 Y109.148
G1 X108.16 Y109.256
G1 X108.194 Y109.351
G1 X108.234 Y109.452
G1 X108.284 Y109.561
G1 X108.344 Y109.675
G1 X109.053 Y110.982
G1 X107.365 Y111.24
G1 X107.307 Y111.287
G1 Z.2
G1 E7 F1800
G1 F1200
G1 X107.338 Y111.299 E.00104
G1 X107.672 Y111.564 E.01337
G1 X107.895 Y111.935 E.01357
;WIDTH:0.452539
G1 X107.994 Y112.429 E.01716
G1 X107.863 Y112.871 E.0157
;WIDTH:0.419999
G1 X107.55 Y113.286 E.0163
G1 X107.171 Y113.502 E.01368
G1 X106.644 Y113.565 E.01664
G1 X106.151 Y113.402 E.01628
G1 X105.829 Y113.124 E.01334
G1 X105.633 Y112.785 E.01228
G1 X105.568 Y112.223 E.01774
;WIDTH:0.417349
G1 X105.763 Y111.762 E.01558
;WIDTH:0.394547
G1 X105.855 Y111.621 E.00492
;WIDTH:0.419999
G1 X105.946 Y111.48 E.00526
G1 X106.312 Y111.247 E.0136
G1 X106.777 Y111.156 E.01486
G1 X107.054 Y111.194 E.00877
G1 X107.251 Y111.266 E.00658
G1 X105.585 Y111.38 F7200
;WIDTH:0.40892
G1 F1200
G1 X105.308 Y111.958 E.01951
;WIDTH:0.419999
G1 X104.847 Y112.504 E.02241
G1 X104.513 Y112.74 E.01282
G1 X103.933 Y112.973 E.0196
G1 X103.382 Y113.067 E.01753
G1 X102.856 Y113.095 E.01652
G1 X102.15 Y113.087 E.02214
G1 X101.604 Y113.126 E.01716
G1 X101.197 Y113.027 E.01313
G1 X100.981 Y112.721 E.01174
G1 X100.902 Y112.258 E.01473
G1 X100.92 Y111.664 E.01863
G1 X100.924 Y108.05 E.11331
G1 X100.882 Y107.459 E.01858
G1 X100.977 Y107.136 E.01056
G1 X101.187 Y106.948 E.00884
G1 X101.456 Y106.852 E.00896
G1 X101.739 Y106.825 E.00891
G1 X103.326 Y106.859 E.04977
G1 X103.904 Y106.943 E.01831
G1 X104.277 Y107.05 E.01217
G1 X104.655 Y107.241 E.01328
G1 X105.036 Y107.56 E.01558
G1 X105.323 Y107.929 E.01466
G1 X105.556 Y108.376 E.01581
G1 X105.74 Y108.989 E.02007
G1 X105.821 Y109.623 E.02004
G1 X105.804 Y110.4 E.02437
G1 X105.722 Y110.937 E.01703
G1 X105.605 Y111.323 E.01265
G1 E-4.9 F1800
;WIPE_START
G1 F5760
G1 X105.585 Y111.38 E-.01793
G1 X105.308 Y111.958 E-.19028
G1 X104.847 Y112.504 E-.21214
G1 X104.513 Y112.74 E-.12141
G1 X103.933 Y112.973 E-.18556
G1 X103.382 Y113.067 E-.16594
G1 X102.856 Y113.095 E-.15638
G1 X102.15 Y113.087 E-.20961
G1 X101.604 Y113.126 E-.16251
G1 X101.197 Y113.027 E-.12435
G1 X100.981 Y112.721 E-.1112
G1 X100.902 Y112.258 E-.13944
G1 X100.92 Y111.664 E-.17642
G1 X100.92 Y111.237 E-.12683
;WIPE_END
G1 Z.4 F7200
G1 X99.905 Y111.331
G1 Z.2
G1 E7 F1800
G1 F1200
G1 X99.873 Y111.653 E.01015
G1 X99.7 Y112.112 E.01538
G1 X99.555 Y112.383 E.00964
G1 X99.26 Y112.728 E.01423
G1 X98.93 Y112.976 E.01294
G1 X98.631 Y113.121 E.01042
G1 X98.214 Y113.23 E.01351
G1 X97.713 Y113.267 E.01575
G1 X96.986 Y113.185 E.02294
G1 X96.473 Y112.979 E.01733
G1 X96.1 Y112.597 E.01674
G1 X95.994 Y112.112 E.01557
G1 X96.076 Y111.811 E.00978
G1 X96.26 Y111.608 E.00859
G1 X96.446 Y111.518 E.00648
G1 X96.756 Y111.48 E.00979
G1 X97.171 Y111.587 E.01344
G1 X97.701 Y111.939 E.01995
G1 X97.941 Y111.938 E.00753
G1 X98.223 Y111.774 E.01023
G1 X98.394 Y111.479 E.01069
G1 X98.39 Y111.12 E.01126
G1 X98.222 Y110.823 E.0107
G1 X98 Y110.583 E.01025
G1 X97.596 Y110.404 E.01385
G1 X97.035 Y110.27 E.01808
G1 X96.901 Y110.212 E.00458
G1 X96.73 Y110.014 E.0082
G1 X96.674 Y109.753 E.00837
G1 X96.754 Y109.377 E.01205
;WIDTH:0.460297
G1 X96.864 Y109.208 E.007
;WIDTH:0.500594
G1 X96.973 Y109.04 E.00762
;WIDTH:0.530107
G1 X97.093 Y108.971 E.00561
;WIDTH:0.559619
G1 X97.213 Y108.902 E.00595
G1 X97.372 Y108.894 E.00684
;WIDTH:0.513079
G1 X97.531 Y108.886 E.00622
;WIDTH:0.466539
G1 X97.69 Y108.878 E.00561
;WIDTH:0.419999
G1 X97.882 Y108.795 E.00656
G1 X98.077 Y108.574 E.00924
G1 X98.108 Y108.316 E.00815
G1 X98.064 Y108.177 E.00457
G1 X97.903 Y108.03 E.00684
G1 X97.586 Y108.014 E.00995
G1 X97.308 Y108.141 E.00958
;WIDTH:0.469154
G1 X97.184 Y108.241 E.00565
;WIDTH:0.518309
G1 X97.06 Y108.342 E.00632
;WIDTH:0.567463
G1 X96.935 Y108.443 E.00701
G1 X96.816 Y108.436 E.0052
;WIDTH:0.518309
G1 X96.698 Y108.429 E.00467
;WIDTH:0.469154
G1 X96.579 Y108.422 E.00422
;WIDTH:0.419999
G1 X96.398 Y108.351 E.0061
G1 X96.196 Y108.173 E.00844
;WIDTH:0.463037
G1 X95.995 Y107.84 E.01359
;WIDTH:0.496873
G1 X95.972 Y107.811 E.0014
;WIDTH:0.530709
G1 X95.95 Y107.782 E.00148
;WIDTH:0.564544
G1 X95.928 Y107.753 E.00158
G1 X95.948 Y107.627 E.00553
;WIDTH:0.536511
G1 X95.969 Y107.501 E.00524
;WIDTH:0.508478
G1 X96.069 Y107.374 E.00626
;WIDTH:0.464239
G1 X96.17 Y107.248 E.00566
;WIDTH:0.419999
G1 X96.479 Y106.977 E.01289
G1 X97.011 Y106.752 E.01811
G1 X97.691 Y106.662 E.02151
G1 X98.251 Y106.696 E.01759
G1 X98.771 Y106.829 E.01683
G1 X99.209 Y107.095 E.01607
G1 X99.538 Y107.518 E.0168
G1 X99.662 Y107.926 E.01337
G1 X99.644 Y108.649 E.02268
G1 X99.512 Y109.068 E.01377
G1 X99.397 Y109.235 E.00636
G1 X98.987 Y109.513 E.01553
G1 X99.199 Y109.596 E.00714
G1 X99.536 Y109.886 E.01394
G1 X99.681 Y110.165 E.00986
G1 X99.811 Y110.575 E.01349
G1 X99.917 Y111.199 E.01985
G1 X99.91 Y111.271 E.00227
G1 E-4.9 F1800
;WIPE_START
G1 F5760
G1 X99.905 Y111.331 E-.01787
G1 X99.873 Y111.653 E-.09606
G1 X99.7 Y112.112 E-.14562
G1 X99.555 Y112.383 E-.09125
G1 X99.26 Y112.728 E-.13476
G1 X98.93 Y112.976 E-.12255
G1 X98.631 Y113.121 E-.09865
G1 X98.214 Y113.23 E-.12796
G1 X97.713 Y113.267 E-.14914
G1 X96.986 Y113.185 E-.2172
G1 X96.473 Y112.979 E-.16412
G1 X96.1 Y112.597 E-.1585
G1 X95.994 Y112.112 E-.14738
G1 X96.076 Y111.811 E-.09262
G1 X96.26 Y111.608 E-.08134
G1 X96.446 Y111.518 E-.06134
G1 X96.756 Y111.48 E-.09272
G1 X97.085 Y111.565 E-.10092
;WIPE_END
G1 Z.4 F7200
G1 X97.102 Y111.509
G1 X95.086 Y107.787
G1 X95.253 Y107.889
G1 Z.2
G1 E7 F1800
;WIDTH:0.50838
G1 F1200
G1 X95.146 Y107.992 E.00575
;WIDTH:0.46419
G1 X95.021 Y108.113 E.00609
;WIDTH:0.419999
G1 X94.51 Y108.212 E.01632
G1 X93.714 Y108.202 E.02496
G1 X93.483 Y108.222 E.00727
G1 X93.434 Y108.479 E.0082
G1 X93.452 Y112.348 E.12131
G1 X93.3 Y112.837 E.01606
G1 X93.143 Y112.998 E.00705
G1 X92.949 Y113.089 E.00672
G1 X92.661 Y113.115 E.00907
G1 X92.349 Y113.03 E.01014
G1 X92.139 Y112.842 E.00884
G1 X92.058 Y112.603 E.00791
G1 X92.09 Y111.928 E.02119
G1 X92.072 Y109.152 E.08704
G1 X92.105 Y108.621 E.01668
G1 X92.084 Y108.418 E.0064
G1 X91.932 Y108.256 E.00697
G1 X91.734 Y108.195 E.0065
G1 X91.488 Y108.186 E.00772
G1 X90.91 Y108.254 E.01825
G1 X90.634 Y108.22 E.00872
G1 X90.395 Y108.069 E.00886
G1 X90.209 Y107.703 E.01287
G1 X90.235 Y107.252 E.01416
G1 X90.47 Y106.924 E.01265
G1 X90.857 Y106.803 E.01271
G1 X91.485 Y106.845 E.01973
G1 X94.777 Y106.835 E.10322
G1 X95.117 Y106.939 E.01115
;WIDTH:0.428889
G1 X95.331 Y107.245 E.01198
;WIDTH:0.470373
G1 X95.364 Y107.345 E.00374
;WIDTH:0.511857
G1 X95.397 Y107.445 E.00411
;WIDTH:0.55334
G1 X95.43 Y107.546 E.00451
G1 X95.396 Y107.751 E.00882
;WIDTH:0.55257
G1 X95.296 Y107.848 E.0059
G1 E-4.9 F1800
;WIPE_START
G1 F5760
G1 X95.253 Y107.889 E-.01764
G1 X95.146 Y107.992 E-.04409
G1 X95.021 Y108.113 E-.05165
G1 X94.51 Y108.212 E-.15452
G1 X93.714 Y108.202 E-.23633
G1 X93.483 Y108.222 E-.06883
G1 X93.434 Y108.479 E-.07767
G1 X93.452 Y112.348 E-1.14862
G1 X93.3 Y112.837 E-.15202
G1 X93.143 Y112.998 E-.06676
G1 X92.949 Y113.089 E-.06362
G1 X92.888 Y113.095 E-.01825
;WIPE_END
G1 Z.4 F7200
G1 X92.957 Y113.454
G1 X92.893 Y113.467
G1 X92.785 Y113.475
G1 X92.683 Y113.475
G1 X92.578 Y113.468
G1 X92.459 Y113.449
G1 X92.345 Y113.417
G1 X92.232 Y113.374
G1 X92.139 Y113.323
G1 X92.059 Y113.272
G1 X91.965 Y113.197
G1 X91.88 Y113.1
G1 X91.823 Y113.014
G1 X91.766 Y112.906
G1 X91.732 Y112.8
G1 X91.71 Y112.707
G1 X91.699 Y112.612
G1 X91.692 Y112.516
G1 X91.721 Y111.269
G1 X89.342 Y107.843
G1 X89.519 Y107.827
G1 Z.2
G1 E7 F1800
;WIDTH:0.419999
G1 F1200
G1 X89.546 Y107.977 E.00478
G1 X89.37 Y108.37 E.0135
G1 X89.182 Y108.525 E.00764
G1 X88.986 Y108.598 E.00656
G1 X88.77 Y108.598 E.00677
G1 X88.346 Y108.439 E.0142
G1 X87.773 Y108.118 E.02059
G1 X87.476 Y108.082 E.00938
G1 X87.051 Y108.184 E.0137
G1 X86.697 Y108.429 E.0135
G1 X86.48 Y108.764 E.01251
G1 X86.327 Y109.344 E.01881
G1 X86.293 Y109.949 E.019
G1 X86.32 Y110.54 E.01855
G1 X86.424 Y111.045 E.01617
G1 X86.662 Y111.452 E.01478
G1 X86.983 Y111.713 E.01297
G1 X87.364 Y111.833 E.01252
G1 X87.659 Y111.831 E.00925
G1 X88.085 Y111.744 E.01363
G1 X88.367 Y111.473 E.01226
G1 X88.685 Y111.342 E.01078
G1 X89.118 Y111.394 E.01367
G1 X89.321 Y111.509 E.00732
G1 X89.513 Y111.738 E.00937
G1 X89.574 Y112.019 E.00902
G1 X89.446 Y112.367 E.01163
G1 X89.125 Y112.767 E.01608
G1 X88.6 Y113.091 E.01934
G1 X88.042 Y113.237 E.01808
G1 X87.228 Y113.245 E.02552
G1 X86.692 Y113.129 E.01719
G1 X86.05 Y112.809 E.02249
G1 X85.727 Y112.541 E.01316
G1 X85.309 Y112.006 E.02129
G1 X85.05 Y111.417 E.02017
;WIDTH:0.460558
G1 X84.944 Y110.984 E.01548
;WIDTH:0.501117
G1 X84.838 Y110.55 E.01702
G1 X84.817 Y109.999 E.02101
;WIDTH:0.506468
G1 X84.845 Y109.293 E.02723
G1 X84.926 Y108.978 E.01254
;WIDTH:0.463234
G1 X85.006 Y108.662 E.01139
;WIDTH:0.419999
G1 X85.196 Y108.144 E.0173
G1 X85.404 Y107.777 E.01323
G1 X85.772 Y107.345 E.01779
G1 X86.26 Y106.989 E.01894
G1 X86.936 Y106.733 E.02266
G1 X87.584 Y106.664 E.02043
G1 X88.303 Y106.741 E.02267
G1 X88.76 Y106.913 E.01531
G1 X89.238 Y107.259 E.0185
G1 X89.476 Y107.576 E.01243
G1 X89.509 Y107.767 E.00608
G1 E-4.9 F1800
;WIPE_START
G1 F5760
G1 X89.519 Y107.827 E-.01806
G1 X89.546 Y107.977 E-.04525
G1 X89.37 Y108.37 E-.12784
G1 X89.182 Y108.525 E-.07234
G1 X88.986 Y108.598 E-.06209
G1 X88.77 Y108.598 E-.06413
G1 X88.346 Y108.439 E-.13443
G1 X87.773 Y108.118 E-.19498
